public/img/general/logos/jeep_logo_black.svg

<svg width="67" height="27" viewBox="0 0 67 27" fill="none" xmlns="http://www.w3.org/2000/svg">
    <path d="M11.5414 0H17V14.3562C17 16.8287 15.9435 22 8.38073 22C0.819868 21.9998 0 17.1799 0 14.4661V11.821H5.27691V14.414C5.27691 16.0004 6.31775 17.4733 8.3235 17.4733C10.3168 17.4733 11.5412 16.3534 11.5412 14.4659L11.5414 0Z" fill="black"/>
    <path d="M25.0955 6C29.2988 6 33 7.61975 33 15.0569H23.0216C23.0216 17.4304 24.0039 18.4102 25.7328 18.4102C27.4542 18.4102 28.0345 17.0309 28.0345 17.0309H32.9389C32.9389 19.1644 30.0003 22.0447 25.5562 21.9995C20.4861 21.9995 18 18.238 18 14.3773C17.9998 10.5097 20.2026 6 25.0955 6ZM28.0982 12.0618C28.0982 10.6192 27.2916 9.23104 25.4451 9.23104C23.6524 9.23104 23.0216 10.5097 23.0216 12.0618H28.0982Z" fill="black"/>
    <path d="M41.5711 6C46.0598 6 50 7.61975 50 15.0569H39.3608C39.3608 17.4304 40.4047 18.4102 42.2494 18.4102C44.0995 18.4102 44.7073 17.0309 44.7073 17.0309H49.9321C49.9321 19.1644 46.8044 22.0447 42.067 21.9995C36.6508 21.9995 34 18.238 34 14.3773C34 10.5097 36.3389 6 41.5711 6ZM44.7741 12.0618C44.7741 10.6192 43.9088 9.23104 41.9433 9.23104C40.0326 9.23104 39.3608 10.5097 39.3608 12.0618H44.7741Z" fill="black"/>
    <path d="M51 26.9998V6.41962H56.0433V8.75817C56.2191 8.36902 56.3498 8.0975 56.7401 7.60956C57.0781 7.19305 58.0269 6 60.5533 6C63.0726 6 67 7.78871 67 14.1173C67 19.0071 64.66 22.5859 60.6121 22.5859C58.3795 22.5859 57.3834 21.7952 56.7982 21.3375C56.4239 21.0361 56.3073 20.8948 56.102 20.6136V27L51 26.9998ZM55.9791 14.2949C55.922 17.338 56.5674 18.9394 59.0302 18.9394C61.4885 18.9394 61.8494 16.2043 61.8494 14.1173C61.8494 12.0266 61.3733 10.0032 58.7941 10.0032C57.217 10.0032 56.0433 11.2497 55.9791 14.2949Z" fill="black"/>
</svg>

<svg width="67" height="27" fill="none" xmlns="http://www.w3.org/2000/svg"><path d="M11.541 0H17v14.356C17 16.83 15.944 22 8.38 22 .82 22 0 17.18 0 14.466v-2.645h5.277v2.593c0 1.586 1.04 3.06 3.046 3.06 1.994 0 3.218-1.12 3.218-3.008V0zm13.555 6C29.299 6 33 7.62 33 15.057h-9.978c0 2.373.982 3.353 2.71 3.353 1.722 0 2.303-1.38 2.303-1.38h4.904c0 2.134-2.939 5.015-7.383 4.97C20.486 22 18 18.238 18 14.377 18 10.51 20.203 6 25.096 6zm3.002 6.062c0-1.443-.806-2.831-2.653-2.831-1.793 0-2.423 1.279-2.423 2.83h5.076zM41.571 6C46.06 6 50 7.62 50 15.057H39.36c0 2.373 1.045 3.353 2.89 3.353 1.85 0 2.457-1.38 2.457-1.38h5.225c0 2.134-3.128 5.015-7.865 4.97C36.651 22 34 18.238 34 14.377 34 10.51 36.339 6 41.571 6zm3.203 6.062c0-1.443-.865-2.831-2.83-2.831-1.911 0-2.583 1.279-2.583 2.83h5.413zM51 27V6.42h5.043v2.338c.176-.389.307-.66.697-1.148.338-.417 1.287-1.61 3.813-1.61C63.073 6 67 7.789 67 14.117c0 4.89-2.34 8.469-6.388 8.469-2.233 0-3.229-.79-3.814-1.248a3.145 3.145 0 01-.696-.724V27H51zm4.98-12.705c-.058 3.043.587 4.644 3.05 4.644 2.459 0 2.82-2.735 2.82-4.822 0-2.09-.477-4.114-3.056-4.114-1.577 0-2.75 1.247-2.815 4.292z" fill="#000"/></svg>
